X: 1
T:Funen march
R:March
S:Rasmus Storm's Notebook 
O:Denmark
M:4/4
L:1/8
K:D
FG|A2A2 A2Bc|d6A2|B2d2 A2d2|G2AG F2A2|!
Bdcd Adcd|A2G2 F2d2|c2cd e2ef|g6fe|!
f2ed c3d|d6::de|f2f2 f2ed|!
e2f^g a2Bc|d2d2 d2cB|c2f2 e2dc|B2B2 Bcd2|!
A2AG F2A2|B2B2 Bcd2|A2AG F2A2|B2d2 A2d2|!
A2GA F2A2|Bdcd Adcd|A2GA F2d2|c2cd e2ef|!
g6fe|f2ed c3d|d6:|
